X:1
T:The Town I Loved So Well
M:4/4
L:1/8
K:A
 CD| E6 E2| B6 AG| A6A-F| E6 E2| F6G-A| C6A,-B,| C6D-C| B,4 z2 CD|\
 E6 E2| B6 AG| A6A-F| E6 EE| F4 G2 A2| C4 C- B,2 A,| A,8-| A,4 z2 EE|\
 A4 A2 A2| B6 cd| d- c2 c c2- B2| A4 z2 Bc| d6 d2| d3 c B3 A|G-F E6-|\
 E4 z2 CD| E6 E2| B6 AG| A3 A A3 F| E6 EE| F6G-A| C6C-B,| A,8-| A,4 z2||\
